files/resources/svgs/general/o-scale.svg

<svg width="24" height="24" viewBox="0 0 24 24" fill="none" xmlns="http://www.w3.org/2000/svg">
<path d="M12 3V20.25M12 20.25C10.528 20.25 9.1179 20.515 7.81483 21M12 20.25C13.472 20.25 14.8821 20.515 16.1852 21M18.75 4.97089C16.5446 4.66051 14.291 4.5 12 4.5C9.70897 4.5 7.45542 4.66051 5.25 4.97089M18.75 4.97089C19.7604 5.1131 20.7608 5.28677 21.75 5.49087M18.75 4.97089L21.3704 15.6961C21.4922 16.1948 21.2642 16.7237 20.7811 16.8975C20.1468 17.1257 19.4629 17.25 18.75 17.25C18.0371 17.25 17.3532 17.1257 16.7189 16.8975C16.2358 16.7237 16.0078 16.1948 16.1296 15.6961L18.75 4.97089ZM2.25 5.49087C3.23922 5.28677 4.23956 5.1131 5.25 4.97089M5.25 4.97089L7.87036 15.6961C7.9922 16.1948 7.76419 16.7237 7.28114 16.8975C6.6468 17.1257 5.96292 17.25 5.25 17.25C4.53708 17.25 3.8532 17.1257 3.21886 16.8975C2.73581 16.7237 2.5078 16.1948 2.62964 15.6961L5.25 4.97089Z" stroke="#0F172A" stroke-width="1.5" stroke-linecap="round" stroke-linejoin="round"/>
</svg>

<svg xmlns="http://www.w3.org/2000/svg" fill="none" viewBox="0 0 24 24" stroke-width="1.5" stroke="currentColor" aria-hidden="true">
  <path stroke-linecap="round" stroke-linejoin="round" d="M12 3v17.25m0 0c-1.472 0-2.882.265-4.185.75M12 20.25c1.472 0 2.882.265 4.185.75M18.75 4.97A48.416 48.416 0 0012 4.5c-2.291 0-4.545.16-6.75.47m13.5 0c1.01.143 2.01.317 3 .52m-3-.52l2.62 10.726c.122.499-.106 1.028-.589 1.202a5.988 5.988 0 01-2.031.352 5.988 5.988 0 01-2.031-.352c-.483-.174-.711-.703-.59-1.202L18.75 4.971zm-16.5.52c.99-.203 1.99-.377 3-.52m0 0l2.62 10.726c.122.499-.106 1.028-.589 1.202a5.989 5.989 0 01-2.031.352 5.989 5.989 0 01-2.031-.352c-.483-.174-.711-.703-.59-1.202L5.25 4.971z"/>
</svg>
